public/img/old-svg/instagram.svg

<svg width="20" height="20" viewBox="0 0 20 20" fill="none" xmlns="http://www.w3.org/2000/svg">
<path d="M19.8337 6.38531C19.7889 5.36951 19.6246 4.67116 19.3893 4.06603C19.1465 3.42369 18.7729 2.84862 18.2835 2.37055C17.8054 1.88505 17.2264 1.50779 16.5914 1.26883C15.9826 1.03351 15.2878 0.869248 14.2718 0.824461C13.2482 0.775882 12.9233 0.764648 10.3272 0.764648C7.73111 0.764648 7.40616 0.775882 6.38638 0.820668C5.37039 0.865455 4.6719 1.02987 4.0668 1.26503C3.4242 1.50779 2.84901 1.88125 2.37086 2.37055C1.88526 2.84862 1.50807 3.42749 1.26892 4.06238C1.03357 4.67116 0.869268 5.36572 0.824473 6.38151C0.775884 7.4049 0.764648 7.72978 0.764648 10.3254C0.764648 12.921 0.775884 13.2458 0.820679 14.2654C0.865474 15.2812 1.02992 15.9796 1.26528 16.5847C1.50807 17.227 1.88526 17.8021 2.37086 18.2802C2.84901 18.7657 3.428 19.143 4.06301 19.3819C4.6719 19.6172 5.36659 19.7815 6.38273 19.8263C7.40237 19.8712 7.72746 19.8823 10.3235 19.8823C12.9196 19.8823 13.2446 19.8712 14.2644 19.8263C15.2804 19.7815 15.9788 19.6172 16.5839 19.3819C17.869 18.8852 18.885 17.8694 19.3818 16.5847C19.617 15.9759 19.7815 15.2812 19.8263 14.2654C19.8711 13.2458 19.8823 12.921 19.8823 10.3254C19.8823 7.72978 19.8785 7.4049 19.8337 6.38531ZM18.1118 14.1907C18.0706 15.1244 17.9138 15.6286 17.783 15.9647C17.4617 16.7976 16.8006 17.4586 15.9676 17.7798C15.6314 17.9105 15.1235 18.0673 14.1933 18.1083C13.1848 18.1533 12.8823 18.1644 10.331 18.1644C7.7797 18.1644 7.47343 18.1533 6.46853 18.1083C5.53469 18.0673 5.03041 17.9105 4.69423 17.7798C4.27969 17.6266 3.90236 17.3839 3.59609 17.0664C3.27858 16.7564 3.03578 16.383 2.88257 15.9685C2.75184 15.6324 2.59498 15.1244 2.55398 14.1945C2.50904 13.1862 2.49795 12.8836 2.49795 10.3328C2.49795 7.78201 2.50904 7.4758 2.55398 6.47123C2.59498 5.53757 2.75184 5.03339 2.88257 4.69727C3.03578 4.28267 3.27858 3.90555 3.59988 3.59919C3.9098 3.28175 4.28334 3.039 4.69802 2.88596C5.0342 2.75525 5.54227 2.59842 6.47232 2.55728C7.48087 2.5125 7.78349 2.50126 10.3346 2.50126C12.8897 2.50126 13.1922 2.5125 14.1971 2.55728C15.1309 2.59842 15.6352 2.75525 15.9714 2.88596C16.3859 3.039 16.7633 3.28175 17.0695 3.59919C17.387 3.9092 17.6298 4.28267 17.783 4.69727C17.9138 5.03339 18.0706 5.54122 18.1118 6.47123C18.1566 7.47959 18.1678 7.78201 18.1678 10.3328C18.1678 12.8836 18.1566 13.1824 18.1118 14.1907Z" fill="white"/>
<path d="M10.328 5.41602C7.61624 5.41602 5.41602 7.61567 5.41602 10.3271C5.41602 13.0385 7.61624 15.2382 10.328 15.2382C13.04 15.2382 15.24 13.0385 15.24 10.3271C15.24 7.61567 13.04 5.41602 10.328 5.41602ZM10.328 13.5128C8.56875 13.5128 7.14173 12.0862 7.14173 10.3271C7.14173 8.56801 8.56875 7.1414 10.328 7.1414C12.0874 7.1414 13.5143 8.56801 13.5143 10.3271C13.5143 12.0862 12.0874 13.5128 10.328 13.5128Z" fill="white"/>
<path d="M16.5782 5.21975C16.5782 5.85289 16.0646 6.36626 15.4311 6.36626C14.7977 6.36626 14.2842 5.85289 14.2842 5.21975C14.2842 4.58647 14.7977 4.07324 15.4311 4.07324C16.0646 4.07324 16.5782 4.58647 16.5782 5.21975Z" fill="white"/>
</svg>

<svg width="20" height="20" viewBox="0 0 20 20" fill="none" xmlns="http://www.w3.org/2000/svg"><path d="M19.834 6.385c-.045-1.015-.21-1.714-.445-2.319a4.665 4.665 0 00-1.105-1.695 4.705 4.705 0 00-1.693-1.102c-.608-.235-1.303-.4-2.32-.445-1.023-.048-1.348-.06-3.944-.06s-2.92.012-3.94.057c-1.017.044-1.715.209-2.32.444A4.666 4.666 0 002.37 2.371a4.707 4.707 0 00-1.102 1.691c-.235.61-.4 1.304-.445 2.32-.048 1.023-.06 1.348-.06 3.943 0 2.596.012 2.92.057 3.94.044 1.016.209 1.715.444 2.32.243.642.62 1.217 1.106 1.695a4.705 4.705 0 001.692 1.102c.609.235 1.304.4 2.32.444 1.02.045 1.344.056 3.94.056 2.597 0 2.922-.01 3.941-.056 1.016-.044 1.715-.209 2.32-.444a4.89 4.89 0 002.798-2.797c.235-.61.4-1.304.444-2.32.045-1.02.056-1.344.056-3.94 0-2.595-.004-2.92-.048-3.94zm-1.722 7.806c-.041.933-.198 1.438-.329 1.774a3.171 3.171 0 01-1.815 1.815c-.337.13-.845.287-1.775.328-1.008.045-1.31.056-3.862.056-2.551 0-2.858-.01-3.862-.056-.934-.04-1.439-.198-1.775-.328a2.942 2.942 0 01-1.098-.714 2.972 2.972 0 01-.713-1.097c-.131-.337-.288-.845-.329-1.774-.045-1.009-.056-1.311-.056-3.862s.011-2.857.056-3.862c.041-.933.198-1.438.329-1.774.153-.414.396-.791.717-1.098a2.97 2.97 0 011.098-.713c.336-.13.844-.288 1.774-.329 1.009-.044 1.311-.056 3.863-.056 2.555 0 2.857.012 3.862.056.934.041 1.438.198 1.774.329a2.94 2.94 0 011.099.713c.317.31.56.684.713 1.098.13.336.288.844.329 1.774.045 1.009.056 1.311.056 3.862 0 2.55-.011 2.85-.056 3.858z" fill="#fff"/><path d="M10.328 5.416a4.913 4.913 0 00-4.912 4.911 4.913 4.913 0 009.824 0c0-2.711-2.2-4.911-4.912-4.911zm0 8.097a3.186 3.186 0 110-6.373 3.186 3.186 0 010 6.373zm6.25-8.293a1.147 1.147 0 11-2.294-.001 1.147 1.147 0 012.294 0z" fill="#fff"/></svg>
